contributed-vectors/musegear_finder.svg

<?xml version="1.0" encoding="UTF-8" standalone="no"?>
<svg
   xmlns:dc="http://purl.org/dc/elements/1.1/"
   xmlns:cc="http://creativecommons.org/ns#"
   xmlns:rdf="http://www.w3.org/1999/02/22-rdf-syntax-ns#"
   xmlns:svg="http://www.w3.org/2000/svg"
   xmlns="http://www.w3.org/2000/svg"
   xmlns:sodipodi="http://sodipodi.sourceforge.net/DTD/sodipodi-0.dtd"
   xmlns:inkscape="http://www.inkscape.org/namespaces/inkscape"
   width="192"
   height="192"
   version="1.1"
   viewBox="0 0 192 192"
   id="svg14"
   sodipodi:docname="musegear_finder.svg"
   inkscape:version="1.0.1 (3bc2e813f5, 2020-09-07)">
  <metadata
     id="metadata20">
    <rdf:RDF>
      <cc:Work
         rdf:about="">
        <dc:format>image/svg+xml</dc:format>
        <dc:type
           rdf:resource="http://purl.org/dc/dcmitype/StillImage" />
      </cc:Work>
    </rdf:RDF>
  </metadata>
  <defs
     id="defs18" />
  <sodipodi:namedview
     pagecolor="#ffffff"
     bordercolor="#666666"
     borderopacity="1"
     objecttolerance="10"
     gridtolerance="10"
     guidetolerance="10"
     inkscape:pageopacity="0"
     inkscape:pageshadow="2"
     inkscape:window-width="1884"
     inkscape:window-height="1052"
     id="namedview16"
     showgrid="false"
     inkscape:zoom="2"
     inkscape:cx="151.66726"
     inkscape:cy="75.588227"
     inkscape:window-x="36"
     inkscape:window-y="0"
     inkscape:window-maximized="1"
     inkscape:current-layer="svg14" />
  <rect
     style="fill:#ffffff;fill-opacity:1;fill-rule:evenodd;stroke:none;stroke-width:0.993464;stroke-opacity:1"
     width="152"
     height="152"
     x="20"
     y="20"
     rx="9.9346409"
     id="rect963"
     ry="9.9346409" />
  <path
     id="path4"
     d="M 135.96094 82.259766 C 135.65393 83.281866 135.12278 84.556625 134.79883 85.765625 L 122.45508 122.27148 C 123.20797 122.21218 124.03148 122.13574 124.79688 122.17969 C 140.54388 123.08397 153.96675 134.88191 153.46875 150.87891 C 153.21206 159.11771 149.4614 166.343 144.8125 172 L 162.06445 172 C 162.388 172 162.70799 171.98307 163.02344 171.95312 C 163.10181 171.94578 163.18101 171.93108 163.25977 171.92188 C 163.50984 171.8921 163.75804 171.85645 164.00195 171.80859 C 164.0565 171.79822 164.11142 171.78667 164.16602 171.77539 C 168.24959 170.90219 171.38054 167.53489 171.91211 163.33203 C 171.92265 163.24773 171.94031 163.16965 171.94922 163.08398 C 171.94941 163.08207 171.94903 163.08004 171.94922 163.07812 C 171.98263 162.7452 172 162.40647 172 162.06445 L 172 99.724609 C 162.45359 89.849173 149.92983 83.891881 135.96094 82.259766 z "
     style="fill:#728dbe;fill-opacity:1" />
  <path
     d="m58.087 172c-6.1077-20.116-3.9548-38.258 5.2687-54.708l39.382 14.231c-13.779 16.277-7.447 29.654 1.8998 40.477z"
     fill="#728dbe"
     id="path6" />
  <path
     d="m116.89 122.52c-1.613 4.608-6.659 7.039-11.269 5.425l-35.621-12.47c-4.611-1.613-7.039-6.66-5.425-11.269l12.47-35.621c1.614-4.61 6.66-7.039 11.27-5.425l35.619 12.469c4.61 1.614 7.04 6.66 5.425 11.271z"
     fill="#9abefc"
     id="path8" />
  <path
     id="path10"
     d="M 107.63281 20 C 107.62558 20.01098 107.61856 20.020263 107.61133 20.03125 L 111.66406 49.683594 C 111.8067 50.217644 111.99577 50.755909 112.22656 51.287109 C 112.45734 51.818309 112.72937 52.343416 113.04297 52.853516 C 113.35655 53.363616 113.71251 53.859378 114.10352 54.330078 C 114.49457 54.800808 114.91968 55.247096 115.38281 55.660156 C 115.84599 56.073266 116.34502 56.451822 116.875 56.789062 C 117.40497 57.126283 117.96719 57.420992 118.55859 57.664062 C 119.15003 57.907133 119.77232 58.099799 120.41992 58.230469 C 121.06746 58.361139 121.7391 58.431641 122.4375 58.431641 L 172 51.779297 L 172 29.935547 C 172 24.431756 167.56824 20 162.06445 20 L 107.63281 20 z "
     style="fill:#f9de81;fill-opacity:1" />
  <path
     d="m58.555 20h-28.619c-0.68797 0-1.3599 0.069266-2.0078 0.20117-0.64789 0.13191-1.2725 0.32548-1.8672 0.57617-0.59468 0.25069-1.1591 0.5577-1.6875 0.91406-0.52836 0.35637-1.0198 0.76397-1.4688 1.2129s-0.85652 0.94039-1.2129 1.4688c-0.35637 0.52836-0.66337 1.0928-0.91406 1.6875-0.2507 0.59468-0.44427 1.2193-0.57617 1.8672-0.13191 0.64789-0.20117 1.3198-0.20117 2.0078v60.93h0.003906c4.1967 4.1967 11.702 3.7975 15.479 0.021485l37.74-46.291c2.1604-3.7419 2.5106-9.8683-1.7715-14.15l-12.896-10.445z"
     fill="#ff837d"
     id="path12" />
  <style
     type="text/css"
     id="style853">
	.st0{fill:#FFFFFF;}
</style>
  <style
     type="text/css"
     id="style853-9">
	.st0{fill:#FFFFFF;}
</style>
  <style
     type="text/css"
     id="style853-3">
	.st0{fill:#FFFFFF;}
</style>
  <style
     type="text/css"
     id="style853-36">
	.st0{fill:#FFFFFF;}
</style>
  <style
     type="text/css"
     id="style853-9-7">
	.st0{fill:#FFFFFF;}
</style>
  <style
     type="text/css"
     id="style853-3-5">
	.st0{fill:#FFFFFF;}
</style>
</svg>

<svg xmlns="http://www.w3.org/2000/svg" id="svg14" width="192" height="192" version="1.1"><rect id="rect963" width="152" height="152" x="20" y="20" rx="9.935" ry="9.935" style="fill:#fff;fill-opacity:1;fill-rule:evenodd;stroke:none;stroke-width:.993464;stroke-opacity:1"/><path id="path4" d="M135.96 82.26c-.306 1.022-.837 2.297-1.161 3.506l-12.344 36.505c.753-.059 1.576-.135 2.342-.091 15.747.904 29.17 12.702 28.672 28.699-.257 8.239-4.008 15.464-8.656 21.121h17.251c.324 0 .644-.017.96-.047.078-.007.157-.022.236-.031.25-.03.498-.066.742-.113a9.902 9.902 0 0 0 7.91-8.477c.01-.084.028-.162.037-.248v-.006c.034-.333.051-.672.051-1.014v-62.34c-9.546-9.875-22.07-15.832-36.04-17.464z" style="fill:#728dbe;fill-opacity:1"/><path id="path6" fill="#728dbe" d="M58.087 172c-6.108-20.116-3.955-38.258 5.269-54.708l39.382 14.231c-13.78 16.277-7.447 29.654 1.9 40.477z"/><path id="path8" fill="#9abefc" d="M116.89 122.52a8.845 8.845 0 0 1-11.269 5.425L70 115.475a8.843 8.843 0 0 1-5.425-11.269l12.47-35.621a8.845 8.845 0 0 1 11.27-5.425l35.619 12.469a8.844 8.844 0 0 1 5.425 11.271z"/><path id="path10" d="m107.633 20-.022.031 4.053 29.653c.143.534.332 1.072.563 1.603a12.516 12.516 0 0 0 1.877 3.043c.39.47.816.917 1.279 1.33.463.413.962.792 1.492 1.13.53.336 1.092.631 1.684.874a10.208 10.208 0 0 0 3.879.768L172 51.779V29.936A9.914 9.914 0 0 0 162.064 20h-54.431z" style="fill:#f9de81;fill-opacity:1"/><path id="path12" fill="#ff837d" d="M58.555 20H29.936c-.688 0-1.36.07-2.008.201a9.877 9.877 0 0 0-3.555 1.49 10.001 10.001 0 0 0-2.682 2.682 9.883 9.883 0 0 0-1.69 5.563v60.93h.003c4.197 4.196 11.702 3.797 15.48.021l37.74-46.29c2.16-3.743 2.51-9.87-1.772-14.15L58.556 20z"/><style id="style853" type="text/css">.st0{fill:#fff}</style></svg>
